X:48
T:Devil To Pay,The. JaW.048
M:6/4
L:1/8
Q:1/4=100
S:James Winder Ms, Lancashire, 1835-41
R:.misc.
O:England
A:Wyresdale,Lancashire
N:Make of it what you will.CGP
Z:vmp.Chris Partington, Aug 2004
K:F
“_As Written”edc2G2DEC2| efe2d2cd ec dB|cA G2A2B2cAA2|G2G4:|!
|:G2|c2f2G2f2e2d2|ED FA GB Ad ge fd|ec|d4:|

